X: 30054
M: 3/8
L: 1/8
K: G
edc | dcA | cBG | G2 B/c/ |\
edB | dcF | G2 F/G/ | BAF |\


